src/pos-icons/arrow-top-right-bottom-left.svg

<svg height="24" viewBox="0 0 24 24" width="24" xmlns="http://www.w3.org/2000/svg"><path d="m11 21h-8v-8h2v4.59l12.59-12.59h-4.59v-2h8v8h-2v-4.59l-12.59 12.59h4.59z"/></svg>

<?xml version="1.0" encoding="UTF-8"?><!DOCTYPE svg PUBLIC "-//W3C//DTD SVG 1.1//EN" "http://www.w3.org/Graphics/SVG/1.1/DTD/svg11.dtd"><svg xmlns="http://www.w3.org/2000/svg" xmlns:xlink="http://www.w3.org/1999/xlink" version="1.1" id="mdi-arrow-top-right-bottom-left" width="24" height="24" viewBox="0 0 24 24"><path d="M11,21H3V13H5V17.59L17.59,5H13V3H21V11H19V6.41L6.41,19H11V21Z" /></svg>
